X: 191
Q: "Slow"
M: C
L: 1/16
K: G
(BA) |\
d2 |\
g3bd'3b (c'3b)(a3g) | (a2c')a g2(d'b) a3g e3a |\
g3bd'3b (c'2b2)(a2g2) | (ac')(bc') (d'c').b.a g4 (g2d2) |
g3bd'3b (c'2b2)(a2g2) | (ac').b.a (bd').c'.b .a3g e3g |\
d3g (ed)(cB) c3de3c | B3g d2(cB) A4 G2 |]


